X:6030
T:Gan Ainm 
R:Hornpipe
S:
H:
N:
D:Irish Dancing Tape (P. Acc)
Z:Adrian Scahill
M:4/4
L:1/8
K:G
dgfg ec'ba|(3gab gd (3Bcd BG|FGAB cded|(3cBA (3BAG Fedc|\
Bgfg ec'ba|(3gab gd (3Bcd BG|Fedc (3BAG (3AGF|1 (3GBd (3gdB G2Bc:|2 (3GBd (3gdB G2AB||\
M:12/8\
cBA BAG FAc ed^c|d^cd Bdg bag fed|cBA BAG FAc ed^c|d^cd Bdg bag =fed|\
e^de a^ga cba gfe|d^cd gfg bag fed|egf edc BAG FGA|GBd gdB G3 (2AB:||\


